storage/app/icons/phosphoricons/fill/faders-fill.svg

<svg xmlns="http://www.w3.org/2000/svg" fill="currentColor" viewBox="0 0 256 256"><path d="M136 120v96a8 8 0 0 1-16 0v-96a8 8 0 0 1 16 0m64 72a8 8 0 0 0-8 8v16a8 8 0 0 0 16 0v-16a8 8 0 0 0-8-8m24-48h-16V40a8 8 0 0 0-16 0v104h-16a8 8 0 0 0-8 8v16a8 8 0 0 0 8 8h48a8 8 0 0 0 8-8v-16a8 8 0 0 0-8-8M56 160a8 8 0 0 0-8 8v48a8 8 0 0 0 16 0v-48a8 8 0 0 0-8-8m24-48H64V40a8 8 0 0 0-16 0v72H32a8 8 0 0 0-8 8v16a8 8 0 0 0 8 8h48a8 8 0 0 0 8-8v-16a8 8 0 0 0-8-8m72-48h-16V40a8 8 0 0 0-16 0v24h-16a8 8 0 0 0-8 8v16a8 8 0 0 0 8 8h48a8 8 0 0 0 8-8V72a8 8 0 0 0-8-8"/></svg>

<svg xmlns="http://www.w3.org/2000/svg" viewBox="0 0 256 256" fill="currentColor"><path d="M136,120v96a8,8,0,0,1-16,0V120a8,8,0,0,1,16,0Zm64,72a8,8,0,0,0-8,8v16a8,8,0,0,0,16,0V200A8,8,0,0,0,200,192Zm24-48H208V40a8,8,0,0,0-16,0V144H176a8,8,0,0,0-8,8v16a8,8,0,0,0,8,8h48a8,8,0,0,0,8-8V152A8,8,0,0,0,224,144ZM56,160a8,8,0,0,0-8,8v48a8,8,0,0,0,16,0V168A8,8,0,0,0,56,160Zm24-48H64V40a8,8,0,0,0-16,0v72H32a8,8,0,0,0-8,8v16a8,8,0,0,0,8,8H80a8,8,0,0,0,8-8V120A8,8,0,0,0,80,112Zm72-48H136V40a8,8,0,0,0-16,0V64H104a8,8,0,0,0-8,8V88a8,8,0,0,0,8,8h48a8,8,0,0,0,8-8V72A8,8,0,0,0,152,64Z"/></svg>
